navigator-task/img/icons/proc.svg

<svg width="168" height="169" viewBox="0 0 168 169" fill="none" xmlns="http://www.w3.org/2000/svg">
<path fill-rule="evenodd" clip-rule="evenodd" d="M161.613 86.0761C162.456 43.8767 129.506 8.70367 87.3754 6.86727L87.3751 6.86726L87.0744 6.85415C85.0528 6.76609 84.8749 6.75957 84.6999 6.7792C84.6918 6.78011 84.6838 6.78107 84.6755 6.78207C84.6673 6.78309 84.6589 6.78415 84.6501 6.78526C84.44 6.81176 84.0263 6.86394 80.9262 6.8671H80.9261L80.6249 6.86726C38.4962 8.70354 5.54521 43.8766 6.38887 86.0761L6.39173 86.2133C7.30946 128.464 41.7696 162.236 83.9696 162.253H84H84.0304C126.232 162.236 160.692 128.464 161.61 86.2133L161.613 86.0763L161.613 86.0761ZM84 169C129.747 168.794 166.988 132.129 167.98 86.3517L167.983 86.2034C168.897 40.4554 133.279 2.31162 87.6691 0.121833C87.5712 0.117131 87.4732 0.112593 87.3751 0.108222C86.8102 0.108243 86.472 0.0847632 86.1107 0.0596719C85.3085 0.00396773 84.392 -0.0596807 80.6249 0.108222C80.5268 0.112594 80.4288 0.117131 80.3309 0.121834C34.7212 2.31163 -0.897117 40.4554 0.0172152 86.2034L0.0203065 86.3517C1.01391 132.129 38.2544 168.794 84 169ZM66.4503 133.853C65.3313 135.347 63.2152 135.649 61.7254 134.528C60.2363 133.411 59.9317 131.297 61.0445 129.804L61.0452 129.803L61.0498 129.797L70.8063 116.772L91.7884 88.7592L101.544 75.7349L101.546 75.732L101.551 75.725C102.67 74.2316 104.785 73.9297 106.276 75.0501C107.765 76.1672 108.068 78.2811 106.957 79.7741L106.956 79.7751L106.952 79.7811L97.1954 92.8067L76.213 120.82L66.4555 133.846L66.4548 133.847L66.4503 133.853ZM61.726 134.528L63.7493 131.83L63.7527 131.833L61.726 134.528ZM63.7576 131.826L63.753 131.832L63.7497 131.83L63.7542 131.824L63.7546 131.823L73.7269 118.529L73.7314 118.533L73.7467 118.544L63.7579 131.826L63.7576 131.826ZM80.6249 87.8917C80.6249 95.357 74.5816 101.41 67.1243 101.41C59.6687 101.41 53.6238 95.357 53.6238 87.8917C53.6238 80.4264 59.6687 74.3736 67.1243 74.3736C74.5816 74.3736 80.6249 80.4264 80.6249 87.8917ZM73.8746 87.8917C73.8746 84.159 70.8538 81.1326 67.1243 81.1326C63.3965 81.1326 60.3741 84.159 60.3741 87.8917C60.3741 91.6243 63.3965 94.6507 67.1243 94.6507C70.8538 94.6507 73.8746 91.6243 73.8746 87.8917ZM87.3751 121.687C87.3751 129.152 93.42 135.205 100.876 135.205C108.333 135.205 114.376 129.152 114.376 121.687C114.376 114.222 108.333 108.169 100.876 108.169C93.42 108.169 87.3751 114.222 87.3751 121.687ZM107.626 121.687C107.626 125.42 104.605 128.446 100.876 128.446C97.1478 128.446 94.1254 125.42 94.1254 121.687C94.1254 117.954 97.1478 114.928 100.876 114.928C104.605 114.928 107.626 117.954 107.626 121.687Z" fill="#675A54"/>
</svg>

<svg width="168" height="169" fill="none" xmlns="http://www.w3.org/2000/svg"><path fill-rule="evenodd" clip-rule="evenodd" d="M161.613 86.076c.843-42.2-32.107-77.372-74.238-79.209l-.3-.013c-2.022-.088-2.2-.094-2.375-.075l-.025.003-.025.003c-.21.027-.624.079-3.724.082h-.301c-42.129 1.837-75.08 37.01-74.236 79.21l.003.136c.917 42.251 35.378 76.023 77.578 76.04h.06c42.202-.017 76.662-33.789 77.58-76.04l.003-.137zM84 169c45.747-.206 82.988-36.871 83.98-82.648l.003-.149c.914-45.748-34.704-83.891-80.314-86.081a84.95 84.95 0 00-.294-.014c-.565 0-.903-.023-1.264-.048-.803-.056-1.719-.12-5.486.048l-.294.014C34.72 2.312-.897 40.455.017 86.203l.003.149C1.014 132.129 38.254 168.794 84 169zm-17.55-35.147a3.37 3.37 0 01-4.725.675 3.381 3.381 0 01-.68-4.724v-.001l.005-.006 9.756-13.025 20.982-28.013 9.756-13.024.002-.003.005-.007a3.371 3.371 0 014.725-.675 3.383 3.383 0 01.681 4.724l-.001.001-.004.006-9.757 13.026-20.982 28.013-9.757 13.026-.001.001-.005.006zm-4.724.675l2.023-2.698.004.003-2.027 2.695zm2.032-2.702l-.005.006-.003-.002.004-.006v-.001l9.973-13.294.004.004.016.011-9.99 13.282zm16.867-43.934c0 7.465-6.043 13.518-13.5 13.518-7.456 0-13.501-6.053-13.501-13.518 0-7.466 6.045-13.518 13.5-13.518 7.458 0 13.5 6.052 13.5 13.518zm-6.75 0c0-3.733-3.021-6.76-6.75-6.76-3.728 0-6.75 3.027-6.75 6.76 0 3.732 3.022 6.759 6.75 6.759 3.729 0 6.75-3.027 6.75-6.76zm13.5 33.795c0 7.465 6.045 13.518 13.501 13.518 7.457 0 13.5-6.053 13.5-13.518 0-7.465-6.043-13.518-13.5-13.518-7.456 0-13.5 6.053-13.5 13.518zm20.251 0a6.754 6.754 0 01-6.75 6.759 6.755 6.755 0 01-6.75-6.759 6.755 6.755 0 016.75-6.759 6.754 6.754 0 016.75 6.759z" fill="#675A54"/></svg>
